X: 37109
T: Sim's Dim
R: hornpipe
M: 4/4
K: Gmajor
ba|:"G"gdBG"Bbdim7" _B^cfe|"b/G"dBGB "G"d2ed|"Am"ce"(g"Be "f#"Ae"e)"Ga|"A"A^ce f"D"d2ba|
"G"gdBG"Bbdim7" _B^cfe|"b/G"dBGD "Bdim7"=F^GBd|"Am"e^deA cA"Cdim7"FA|_EA"D"DF"b/G" G2a2|
"G"gdBG "Bbdim7"_B^cf=e|"b/G"dBGE "G"D2ed|"e/Am"(3cdc"(d" (3BcB "c"(3ABA "b"GA|"a/A7"(3FGF"g)" (3EFE "f#/D"DCB,A,|
"G"G,B,DG "G7"BGDB,|"Adim"A,C_EF Ac_ef|"b/G"gdBG "Cdim7"_ecAF|(3_EF_E "D"DF"G" G2AB|
"D"cAFA "f#/"_EA"D7"DA|"b/G"GABc "G"de2g|"D"fcAF"Eb7" _e^c"D7"dB|"b/G"GABG "G"De2d|
"D"cAFA "f#/"_EA"D7"DC|"G"B,DGD "Bdim7"=F^GBd|"Am"e^deA cA"Cdim7"FA|(3_EF_E "D"DF "G"G2AB|
"D"cAFA"f#/" _EA"D7"DA|"b/G"GABc "G"dbag|"D"fcAF "Eb7"_e^c"D7"dB|"b/G"GABG"G" D2B2|
"D"cAFA "f#/"_EA"D7"DF|"Edim7"=EG_B^c"break" egfe|"b/G"dBGB "Adim7"c_efa|1 "G"g2d2G2ba:|
[2"Bbdim7"gG,_B,^C "break"Egfe|"G"d=BGE"D" D=C=B,A,|"G"G,4g'4|

